X:1
T:Darwent, LM
T:Darwent, LM
T:The American Vocalist, 1849
T:Public Domain Courtesy of the Cyber Hymnal™
C:The American Vocalist, 1849
Z:Public Domain
Z:Courtesy of the Cyber Hymnal™
%%score 1 2 3 4
L:1/8
Q:1/4=115
M:3/4
K:Eb
V:1 treble 
V:2 treble 
V:3 treble-8 
V:4 bass 
V:1
 c2 | c4 c2 | =B4 c2 | (d2 e2) (fe) | (e2 d2) =B2 | (c2 =B2) c2 | (c2 =B2) c2 | (f2 e2) d2 | %8
 c4 c2 | (c2 =B2) G2 | (c2 =B2) G2 | (=B2 cg) (f>e) | (e2 d2) =B2 | (c2 d2) e2 | (c2 =B2) c2 | %15
 (f2 e2) d2 | c4 |] %17
V:2
 E2 | G4 G2 | G4 G2 | (F2 G2) A2 | G4 G2 | (G2 F2) E2 | G4 G2 | (A2 G2) G2 | G4 C2 | (E2 D2) C2 | %10
 G4 G2 | G4 A2 | G4 G2 | (G2 F2) E2 | (E2 D2) G2 | (A2 G2) G2 | G4 |] %17
V:3
 G2 | c4 e2 | d4 e2 | (f2 e2) dc | (c2 =B2) B2 | (c2 d2) e2 | G4 e2 | (d>e c2) =B2 | c4 c2 | %9
 (G2 F2) E2 | (e2 d2) c2 | (f2 e2) (dc) | (c2 =B2) d2 | (e2 d2) c2 | G4 e2 | (d>e c2) =B2 | c4 |] %17
V:4
 C,2 | C,4 C,2 | G,4 C2 | (=B,2 C2) F,2 | G,4 (G,>F,) | (E,2 D,2) C,2 | (G,3 F,) E,2 | %7
 (F,2 G,2) G,,2 | C,4 C,2 | (C,2 D,2) E,>F, | (G,3 F,) E,2 | (D,2 C,2) F,2 | G,4 [G,,G,]2 | %13
 (C,2 D,2) (E,>F,) | (G,3 F,) E,2 | (F,2 G,2) G,,2 | C,4 |] %17

